Numix-GalliumOS/22/categories/applications-other.svg

<?xml version="1.0" encoding="UTF-8" standalone="no"?>
<svg
   xmlns:dc="http://purl.org/dc/elements/1.1/"
   xmlns:cc="http://creativecommons.org/ns#"
   xmlns:rdf="http://www.w3.org/1999/02/22-rdf-syntax-ns#"
   xmlns:svg="http://www.w3.org/2000/svg"
   xmlns="http://www.w3.org/2000/svg"
   xmlns:sodipodi="http://sodipodi.sourceforge.net/DTD/sodipodi-0.dtd"
   xmlns:inkscape="http://www.inkscape.org/namespaces/inkscape"
   viewBox="0 0 22 22"
   id="svg2"
   version="1.1"
   inkscape:version="0.91 r"
   sodipodi:docname="preferences-other.svg"
   width="22"
   height="22">
  <metadata
     id="metadata24">
    <rdf:RDF>
      <cc:Work
         rdf:about="">
        <dc:format>image/svg+xml</dc:format>
        <dc:type
           rdf:resource="http://purl.org/dc/dcmitype/StillImage" />
        <dc:title />
      </cc:Work>
    </rdf:RDF>
  </metadata>
  <defs
     id="defs22" />
  <sodipodi:namedview
     pagecolor="#ffffff"
     bordercolor="#666666"
     borderopacity="1"
     objecttolerance="10"
     gridtolerance="10"
     guidetolerance="10"
     inkscape:pageopacity="0"
     inkscape:pageshadow="2"
     inkscape:window-width="1680"
     inkscape:window-height="1026"
     id="namedview20"
     showgrid="true"
     inkscape:zoom="27.812866"
     inkscape:cx="9.8765527"
     inkscape:cy="13.475616"
     inkscape:window-x="0"
     inkscape:window-y="24"
     inkscape:window-maximized="1"
     inkscape:current-layer="svg2">
    <inkscape:grid
       type="xygrid"
       id="grid4152" />
  </sodipodi:namedview>
  <path
     style="fill:#cf9545"
     d="M 4.9991718,11 2.298,13.027344 2.7394063,13.617188 4.9991718,11.921875 4.9991718,19 17,19 17,11.921875 19.259766,13.617188 19.701172,13.027344 17,11 Z"
     id="rect6"
     inkscape:connector-curvature="0"
     sodipodi:nodetypes="ccccccccccc" />
  <rect
     style="fill:#cf9545"
     id="rect12"
     transform="matrix(0.95334222,0.30189172,-0.30189172,0.95334222,0,0)"
     height="1.757991"
     y="5.0190034"
     x="8.6982059"
     width="1.757991" />
  <rect
     style="fill:#cf9545"
     id="rect14"
     transform="matrix(0.9598803,-0.28041009,0.28041009,0.9598803,0,0)"
     height="2.8901846"
     y="6.3736529"
     x="6.445941"
     width="2.8901846" />
  <path
     style="fill:#cf9545"
     inkscape:connector-curvature="0"
     id="path16"
     d="M 13.390845,8.7747229 12.563394,9.828869 11.236751,9.639349 10.73756,8.3956822 11.565011,7.3415358 12.891653,7.5310561 Z" />
  <path
     style="fill:#cf9545"
     inkscape:connector-curvature="0"
     id="path18"
     d="m 15.807229,6.1688175 -0.845703,0.2770327 -0.251229,0.8537239 -0.52481,-0.7187033 -0.889574,0.02488 0.521352,-0.7212159 -0.298557,-0.8383461 0.847023,0.2729676 0.705056,-0.5430087 0.0021,0.8899194 z" />
</svg>

<svg xmlns="http://www.w3.org/2000/svg" viewBox="0 0 22 22">
 <path d="m 4.999 11 -2.701 2.027 0.441 0.59 2.26 -1.695 0 7.078 12 0 0 -7.078 2.26 1.695 0.441 -0.59 -2.701 -2.027" style="fill:#cf9545"/>
 <rect transform="matrix(0.95334222,0.30189172,-0.30189172,0.95334222,0,0)" height="1.758" y="5.02" x="8.698" width="1.758" style="fill:#cf9545"/>
 <rect transform="matrix(0.9598803,-0.28041009,0.28041009,0.9598803,0,0)" height="2.89" y="6.374" x="6.446" width="2.89" style="fill:#cf9545"/>
 <path d="m 13.391 8.775 -0.827 1.054 -1.327 -0.19 -0.499 -1.244 0.827 -1.054 1.327 0.19" style="fill:#cf9545"/>
 <path d="m 15.807 6.169 -0.846 0.277 -0.251 0.854 -0.525 -0.719 -0.89 0.025 0.521 -0.721 -0.299 -0.838 0.847 0.273 0.705 -0.543 0.002 0.89 z" style="fill:#cf9545"/>
</svg>
